svg/icon/game.svg

<svg xmlns="http://www.w3.org/2000/svg" xmlns:xlink="http://www.w3.org/1999/xlink" width="32" height="32" viewBox="0 0 32 32">
  <defs>
    <linearGradient id="game-c" x1="50%" x2="50%" y1="0%" y2="100%">
      <stop offset="0%" stop-color="#FFF" stop-opacity=".5"/>
      <stop offset="100%" stop-opacity=".5"/>
    </linearGradient>
    <circle id="game-b" cx="16" cy="15" r="15"/>
    <filter id="game-a" width="111.7%" height="111.7%" x="-5.8%" y="-4.2%" filterUnits="objectBoundingBox">
      <feOffset dy=".5" in="SourceAlpha" result="shadowOffsetOuter1"/>
      <feGaussianBlur in="shadowOffsetOuter1" result="shadowBlurOuter1" stdDeviation=".5"/>
      <feComposite in="shadowBlurOuter1" in2="SourceAlpha" operator="out" result="shadowBlurOuter1"/>
      <feColorMatrix in="shadowBlurOuter1" values="0 0 0 0 0   0 0 0 0 0   0 0 0 0 0  0 0 0 0.199473505 0"/>
    </filter>
    <path id="game-e" d="M15.5,4.5 C21.0228475,4.5 25.5,8.9771525 25.5,14.5 L25.5,24.5 L15.5,24.5 C9.9771525,24.5 5.5,20.0228475 5.5,14.5 C5.5,8.9771525 9.9771525,4.5 15.5,4.5 Z M21.203125,19.4842863 L21.203125,22.078125 L23.1171875,22.078125 L23.1171875,15.4375 L16.4765625,15.4375 L16.4765625,17.3515625 L20.4134207,17.3515628 C19.426944,19.0452302 17.5915287,20.1835938 15.4902344,20.1835938 C12.3458788,20.1835938 9.796875,17.6345899 9.796875,14.4902344 C9.796875,11.3458788 12.3458788,8.796875 15.4902344,8.796875 C18.2086341,8.796875 20.4820574,10.7020454 21.0481182,13.25 L22.9772666,13.25 C22.3852847,9.64928562 19.2585509,6.90234375 15.4902344,6.90234375 C11.2995581,6.90234375 7.90234375,10.2995581 7.90234375,14.4902344 C7.90234375,18.6809107 11.2995581,22.078125 15.4902344,22.078125 C17.7685011,22.078125 19.8122549,21.0740553 21.203125,19.4842863 Z"/>
    <filter id="game-d" width="117.5%" height="117.5%" x="-8.8%" y="-6.2%" filterUnits="objectBoundingBox">
      <feOffset dy=".5" in="SourceAlpha" result="shadowOffsetOuter1"/>
      <feGaussianBlur in="shadowOffsetOuter1" result="shadowBlurOuter1" stdDeviation=".5"/>
      <feColorMatrix in="shadowBlurOuter1" values="0 0 0 0 0   0 0 0 0 0   0 0 0 0 0  0 0 0 0.204257246 0"/>
    </filter>
  </defs>
  <g fill="none" fill-rule="evenodd">
    <use fill="#000" filter="url(#game-a)" xlink:href="#game-b"/>
    <use fill="#98C01F" xlink:href="#game-b"/>
    <use fill="url(#game-c)" style="mix-blend-mode:soft-light" xlink:href="#game-b"/>
    <circle cx="16" cy="15" r="14.5" stroke="#000" stroke-opacity=".097"/>
    <g>
      <use fill="#000" filter="url(#game-d)" xlink:href="#game-e"/>
      <use fill="#FFF" xlink:href="#game-e"/>
    </g>
  </g>
</svg>

<svg xmlns="http://www.w3.org/2000/svg" xmlns:xlink="http://www.w3.org/1999/xlink" width="32" height="32"><defs><linearGradient id="c" x1="50%" x2="50%" y1="0%" y2="100%"><stop offset="0%" stop-color="#FFF" stop-opacity=".5"/><stop offset="100%" stop-opacity=".5"/></linearGradient><circle id="b" cx="16" cy="15" r="15"/><filter id="a" width="111.7%" height="111.7%" x="-5.8%" y="-4.2%" filterUnits="objectBoundingBox"><feOffset dy=".5" in="SourceAlpha" result="shadowOffsetOuter1"/><feGaussianBlur in="shadowOffsetOuter1" result="shadowBlurOuter1" stdDeviation=".5"/><feComposite in="shadowBlurOuter1" in2="SourceAlpha" operator="out" result="shadowBlurOuter1"/><feColorMatrix in="shadowBlurOuter1" values="0 0 0 0 0 0 0 0 0 0 0 0 0 0 0 0 0 0 0.199473505 0"/></filter><path id="e" d="M15.5 4.5c5.523 0 10 4.477 10 10v10h-10c-5.523 0-10-4.477-10-10s4.477-10 10-10zm5.703 14.984v2.594h1.914v-6.64h-6.64v1.914h3.936a5.693 5.693 0 1 1 .635-4.102h1.93a7.588 7.588 0 1 0-1.774 6.234z"/><filter id="d" width="117.5%" height="117.5%" x="-8.8%" y="-6.2%" filterUnits="objectBoundingBox"><feOffset dy=".5" in="SourceAlpha" result="shadowOffsetOuter1"/><feGaussianBlur in="shadowOffsetOuter1" result="shadowBlurOuter1" stdDeviation=".5"/><feColorMatrix in="shadowBlurOuter1" values="0 0 0 0 0 0 0 0 0 0 0 0 0 0 0 0 0 0 0.204257246 0"/></filter></defs><g fill="none" fill-rule="evenodd"><use fill="#000" filter="url(#a)" xlink:href="#b"/><use fill="#98C01F" xlink:href="#b"/><use fill="url(#c)" style="mix-blend-mode:soft-light" xlink:href="#b"/><circle cx="16" cy="15" r="14.5" stroke="#000" stroke-opacity=".097"/><use fill="#000" filter="url(#d)" xlink:href="#e"/><use fill="#FFF" xlink:href="#e"/></g></svg>
